X:1
T:Mrs WILLS
T:Mrs WILLS
T:GEORGE JENKINS
C:GEORGE JENKINS
%%score 1 2
L:1/8
M:4/4
K:C
V:1 treble 
V:2 bass 
V:1
 f | (e/f/g) c>g e>cg>e | (f/g/a) Tg>e f>dd>f | (e/f/g) c>g e>cg>e | f>dg>e c/c/c c :| F | %6
 (E/F/G) c>G e>Gc>G | F>dE>c d>DD>F | (E/F/G) c>G e>Gc>G | (F/G/A) D>F E>CC>F | %10
 (E/F/G) c>G e>Gc>G | F>cE>c dDDF | E>CF>D G>cf>a | g>ef>d c/c/c c |] %14
V:2
 z | [C,C]2 [E,C]2 [G,C]2 [G,C]2 | [F,C]2 [E,C]2 [G,B,]2 [G,B,]2 | [C,C]2 [E,C]2 [G,C]2 [G,C]2 | %4
 [G,B,]2 [G,B,]2 [C,G,C]2 [C,G,C] :| z | C,2 [E,G,]2 [E,C]2 [E,G,]2 | %7
 [D,G,]2 [C,G,]2 G,,2 [G,B,]2 | [C,C]2 [E,G,]2 [E,C]2 [E,G,]2 | F,2 G,2 C,2 [E,G,]2 | %10
 C,2 [E,G,]2 [E,C]2 [E,G,]2 | [D,G,]2 [C,G,]2 G,,2 [E,G,]2 | [C,G,]2 [D,G,]2 [E,G,]2 [D,B,]2 | %13
 [E,C]2 [G,B,]2 [C,E,G,C]2 [C,E,G,C] |] %14

